X: 114
U:~=!turn!
M:C
L:1/8
K:G
c | {/^c}d2 (B>d) G>G d>B | c>eB<d e>AA>e | {/^c}d2 (B>d) G>G d>B | c>ed>A B<GG :|
c | B>G(B>d) c>eTd>B | c>eB>d e>AA>c | B>G(B>d) (c>e)d>B | (c>e)B>g TB>GG>c |


